src/assets/images/Location.svg

<svg width="24" height="25" viewBox="0 0 24 25" fill="none" xmlns="http://www.w3.org/2000/svg">
<g id="Location">
<path id="Vector" d="M18 8.04483C18 6.33571 17.3679 4.69659 16.2426 3.48806C15.1174 2.27953 13.5913 1.60059 12 1.60059C10.4087 1.60059 8.88258 2.27953 7.75736 3.48806C6.63214 4.69659 6 6.33571 6 8.04483C6 11.6032 12 20.6006 12 20.6006C12 20.6006 18 11.6032 18 8.04483ZM8.08696 8.04483C8.08696 7.2136 8.31645 6.40104 8.74642 5.70989C9.17639 5.01875 9.78753 4.48007 10.5025 4.16198C11.2176 3.84388 12.0043 3.76065 12.7634 3.92282C13.5225 4.08498 14.2197 4.48525 14.7669 5.07302C15.3142 5.66079 15.6869 6.40965 15.8379 7.22491C15.9888 8.04016 15.9113 8.8852 15.6152 9.65315C15.319 10.4211 14.8175 11.0775 14.174 11.5393C13.5305 12.0011 12.7739 12.2476 12 12.2476C10.9622 12.2476 9.9669 11.8048 9.23306 11.0166C8.49922 10.2285 8.08696 9.15947 8.08696 8.04483Z" fill="black"/>
<path id="Vector_2" d="M15.0774 16.6039C14.6188 17.3536 14.1735 18.0466 13.7813 18.6396C15.443 18.8662 16.6062 19.3993 16.6062 20.0256C16.6062 20.8519 14.5457 21.5249 12 21.5249C9.4543 21.5249 7.39382 20.8586 7.39382 20.0256C7.39382 19.3959 8.56364 18.8628 10.222 18.6396C9.82984 18.0466 9.38451 17.3502 8.92589 16.6006C4.90462 17.057 2 18.4097 2 20.0123C2 21.9947 6.47657 23.6006 12 23.6006C17.5234 23.6006 22 21.9947 22 20.0123C22 18.4097 19.0954 17.057 15.0774 16.6039Z" fill="black"/>
</g>
</svg>

<svg width="24" height="25" fill="none" xmlns="http://www.w3.org/2000/svg"><g fill="#000"><path d="M18 8.045c0-1.71-.632-3.348-1.757-4.557C15.117 2.28 13.59 1.601 12 1.601c-1.591 0-3.117.679-4.243 1.887C6.632 4.697 6 6.336 6 8.045 6 11.603 12 20.6 12 20.6s6-8.998 6-12.556Zm-9.913 0c0-.831.23-1.644.66-2.335a3.988 3.988 0 0 1 1.755-1.548 3.663 3.663 0 0 1 2.261-.24c.76.163 1.457.563 2.004 1.151.547.588.92 1.337 1.07 2.152.152.815.074 1.66-.222 2.428a4.153 4.153 0 0 1-1.441 1.886c-.643.462-1.4.709-2.174.709-1.038 0-2.033-.443-2.767-1.231a4.366 4.366 0 0 1-1.146-2.972Z"/><path d="M15.077 16.604c-.458.75-.903 1.443-1.296 2.036 1.662.226 2.825.76 2.825 1.386 0 .826-2.06 1.499-4.606 1.499s-4.606-.666-4.606-1.5c0-.63 1.17-1.162 2.828-1.385a69.506 69.506 0 0 1-1.296-2.04C4.905 17.058 2 18.41 2 20.013c0 1.983 4.477 3.589 10 3.589s10-1.606 10-3.589c0-1.602-2.905-2.955-6.923-3.408Z"/></g></svg>
